xfadeIn 1 4
$ loopAt 4
$ iter 4
-- $ slice 8 "1 7 2 8"
$ slice 8 "3 6 4 9"
$ s "toper:1"
# room 0.7
# speed "0.25 <0.8 1.2> -0.35"
# delay 0.8
# gain 0.9

xfadeIn 3 16
$ jux rev
-- $ striate 32
$ striate 16
$ loopAt 6
$ s "cosmos:3 cosmos:6 cosmos:1"
-- $ s "cosmos:3 cosmos:1"
# gain 0.8
# speed 0.8
# delay 0.8
# dfb 0.6
# room 0.7
# hpf 1000

d1 silence

d2
$ loopAt 4
$ hurry 0.5
$ s "bio:2 ~"
# gain 0.7
# lpf 1500
# lpq 0.5
