d1
$ slow 4
$ "apostle:1"
# room 0.5
# octave "<2 3 4>"
# lpf 800
# gain 0.8

d2 $ loopAt 2 $ juxBy 0.5 rev $ chop 8 $ s "glass:3 glass:4"
# dt "<0.2 0.4 0.3>"
# delay 0.8
# dfb 0.7
# gain 0.8
# room 0.5
# size 0.8
# lpf 5500

d3 $ s "bd:3 ~ bd? bd:3 ~ ~"
# krush 1
# gain 1.2

d4 $ s "apostle:4"
# hpf 1200
# lpf 1600
# gain 0.7

d5
$ jux rev
$ degradeBy 0.75
$ s "<cosmos:4 cosmos:5>"
# up "<2 4 -2>"
